editor/icons/VisualShaderNodeExpression.svg

<svg height="16" viewBox="0 0 16 16" width="16" xmlns="http://www.w3.org/2000/svg"><g fill="#cf68ea"><path d="m4.859536 3.0412379c-2.0539867 0-3.7190721 1.6650852-3.7190721 3.719072v6.1984521h2.4793814v-2.479381h2.4793814v-2.4793803h-2.4793814v-1.2396908c0-.6846622.5550285-1.2396907 1.2396907-1.2396907h1.2396907v-2.4793813z"/><path d="m7.5889175 3.0000003 2.5000005 4.9999997-2.5000005 5h2.5000005l1.135249-2.727 1.36475 2.727h2.499999l-2.499999-5 2.499999-4.9999997h-2.499999l-1.13525 2.7269998-1.364749-2.7269998zm7.4999985 9.9999997v-6.25z"/></g></svg>

<svg height="16" viewBox="0 0 16 16" width="16" xmlns="http://www.w3.org/2000/svg"><path d="M4.86 3.041a3.72 3.72 0 0 0-3.72 3.72v6.198h2.48v-2.48H6.1V8H3.62V6.76a1.24 1.24 0 0 1 1.24-1.24H6.1V3.042zM7.589 3l2.5 5-2.5 5h2.5l1.135-2.727L12.59 13h2.5l-2.5-5 2.5-5h-2.5l-1.135 2.727L10.089 3z" fill="#cf68ea"/></svg>
